icons/editor-scale-2-filled.svg

<svg width="25" height="24" viewBox="0 0 25 24" fill="none" xmlns="http://www.w3.org/2000/svg">
<g id="scale-02">
<path id="Icon" d="M6.25039 13.2004V18.0004M6.25039 18.0004H10.727M6.25039 18.0004L11.5837 12.6671M21.8504 10.8004H15.8504C14.5249 10.8004 13.4504 9.72587 13.4504 8.40039V2.40039M4.78372 21.6004H19.7171C20.8953 21.6004 21.8504 20.6453 21.8504 19.4671V4.53372C21.8504 3.35552 20.8953 2.40039 19.7171 2.40039H4.78372C3.60552 2.40039 2.65039 3.35552 2.65039 4.53372V19.4671C2.65039 20.6453 3.60552 21.6004 4.78372 21.6004Z" stroke="black" stroke-width="2" stroke-linecap="round" stroke-linejoin="round"/>
</g>
</svg>

<svg xmlns="http://www.w3.org/2000/svg" width="25" height="24" fill="none" viewBox="0 0 25 24"><path stroke="currentColor" stroke-linecap="round" stroke-linejoin="round" stroke-width="2" d="M6.25 13.2V18m0 0h4.477M6.25 18l5.334-5.333M21.85 10.8h-6a2.4 2.4 0 0 1-2.4-2.4v-6M4.784 21.6h14.933a2.133 2.133 0 0 0 2.133-2.133V4.534A2.133 2.133 0 0 0 19.717 2.4H4.784A2.133 2.133 0 0 0 2.65 4.534v14.933c0 1.178.956 2.133 2.134 2.133"/></svg>
